packages/bezier-icons/icons/person-remove.svg

<svg width="24" height="24" viewBox="0 0 24 24" fill="none" xmlns="http://www.w3.org/2000/svg">
<path fill-rule="evenodd" clip-rule="evenodd" d="M10.99 10.2001C11.8734 10.2001 12.59 9.48356 12.59 8.60013C12.59 7.7167 11.8734 7.00013 10.99 7.00013C10.1066 7.00013 9.38998 7.7167 9.38998 8.60013C9.38998 9.48356 10.1066 10.2001 10.99 10.2001ZM14.59 8.60013C14.59 10.5881 12.978 12.2001 10.99 12.2001C9.00198 12.2001 7.38998 10.5881 7.38998 8.60013C7.38998 6.61213 9.00198 5.00013 10.99 5.00013C12.978 5.00013 14.59 6.61213 14.59 8.60013ZM4.99798 20.6884L4.99815 20.6851L4.99798 20.6884ZM5.33109 19.0001C6.15449 16.6703 8.37772 15.0001 10.9896 15.0001C13.6019 15.0001 15.8249 16.6702 16.6486 19.0001H5.33109ZM18.9792 20.5825C18.7616 16.3585 15.268 13.0001 10.9896 13.0001C6.71198 13.0001 3.21758 16.3585 3.00078 20.5825C2.98878 20.8089 3.17918 21.0001 3.40638 21.0001H18.5736C18.8008 21.0001 18.9904 20.8089 18.9792 20.5825ZM20.9067 9.72663C21.2712 10.0911 21.8621 10.0911 22.2266 9.72663C22.5911 9.36214 22.5911 8.77119 22.2266 8.4067L20.3199 6.5L22.2266 4.5933C22.5911 4.22881 22.5911 3.63786 22.2266 3.27337C21.8621 2.90888 21.2712 2.90888 20.9067 3.27337L19 5.18007L17.0933 3.27337C16.7288 2.90888 16.1379 2.90888 15.7734 3.27337C15.4089 3.63786 15.4089 4.22881 15.7734 4.5933L17.6801 6.5L15.7734 8.4067C15.4089 8.77119 15.4089 9.36214 15.7734 9.72663C16.1379 10.0911 16.7288 10.0911 17.0933 9.72663L19 7.81993L20.9067 9.72663Z" fill="#313234"/>
</svg>

<svg xmlns="http://www.w3.org/2000/svg" width="24" height="24" fill="none" viewBox="0 0 24 24"><path fill="#313234" fill-rule="evenodd" d="M10.99 10.2a1.6 1.6 0 1 0 0-3.2 1.6 1.6 0 0 0 0 3.2m3.6-1.6a3.6 3.6 0 1 1-7.2 0 3.6 3.6 0 0 1 7.2 0M4.998 20.688v-.003zM5.331 19a6.003 6.003 0 0 1 11.318 0zm13.648 1.582a8 8 0 0 0-15.978 0 .405.405 0 0 0 .405.418h15.168a.405.405 0 0 0 .405-.418m1.928-10.855a.933.933 0 0 0 1.32-1.32L20.32 6.5l1.907-1.907a.933.933 0 1 0-1.32-1.32L19 5.18l-1.907-1.907a.933.933 0 1 0-1.32 1.32L17.68 6.5l-1.907 1.907a.933.933 0 1 0 1.32 1.32L19 7.82z" clip-rule="evenodd"/></svg>
